public/uploads/logo-coppel.svg

<svg width="162" height="29" viewBox="0 0 162 29" fill="none" xmlns="http://www.w3.org/2000/svg">
<path fill-rule="evenodd" clip-rule="evenodd" d="M30.2153 16.0618H36.3555V21.4312H34.2866V19.4459H32.2859V21.4338H30.2153V16.0618Z" fill="black"/>
<path fill-rule="evenodd" clip-rule="evenodd" d="M38.2561 15.7764H29.1557V15.7871H13.376C13.6157 16.3052 13.7477 16.8755 13.7477 17.4788C13.7477 19.7075 11.9154 21.5275 9.66928 21.5275C7.49967 21.5275 5.71922 19.8378 5.59497 17.7181C5.12676 17.9047 4.61593 18.0046 4.08046 18.0046C1.83282 18.0046 0 16.1866 0 13.9543C0 11.7241 1.83282 9.90664 4.08046 9.90664C4.61593 9.90664 5.12471 10.0055 5.59344 10.1921C5.71049 8.06429 7.49556 6.36592 9.66928 6.36592C11.9154 6.36592 13.7477 8.18444 13.7477 10.4172C13.7477 11.0367 13.607 11.6293 13.3519 12.1546H38.2566L38.2561 15.7764ZM9.65233 8.47342C10.6565 8.47342 11.4739 9.28864 11.4739 10.2843C11.4739 11.2841 10.656 12.0947 9.65233 12.0947C8.64762 12.0947 7.82721 11.2836 7.82721 10.2843C7.8267 9.28864 8.64762 8.47342 9.65233 8.47342ZM4.27914 12.1297C5.28283 12.1297 6.10272 12.9434 6.10272 13.9417C6.10272 14.9374 5.28283 15.7506 4.27914 15.7506C3.2734 15.7506 2.45557 14.9374 2.45557 13.9417C2.45557 12.9434 3.2734 12.1297 4.27914 12.1297ZM9.65233 15.7546C10.6565 15.7546 11.4739 16.5714 11.4739 17.5671C11.4739 18.5653 10.656 19.378 9.65233 19.378C8.64762 19.378 7.82721 18.5653 7.82721 17.5671C7.8267 16.5714 8.64762 15.7546 9.65233 15.7546Z" fill="black"/>
<path fill-rule="evenodd" clip-rule="evenodd" d="M84.2712 8.17927C87.1411 8.17927 89.4863 10.5119 89.4894 13.3737C89.4924 16.2351 87.1519 18.5657 84.2815 18.5657C81.4101 18.5657 79.1419 16.2346 79.1404 13.3737C79.1347 10.5119 81.3983 8.17927 84.2712 8.17927ZM84.2686 4.69077C89.0709 4.69077 92.9948 8.59093 93 13.3788C93.0051 18.1647 89.0894 22.0684 84.2892 22.0684C79.4823 22.0684 75.563 18.1647 75.5574 13.3788C75.5533 8.59093 79.4669 4.69077 84.2686 4.69077Z" fill="black"/>
<path fill-rule="evenodd" clip-rule="evenodd" d="M74.1245 18.2843H67.4914C63.548 18.0481 60.8122 14.5687 61.0375 10.6102C61.3723 6.55339 64.0774 3.92878 68.242 3.72294C70.3012 3.70114 71.9867 3.65045 74.1301 3.65045L74.1332 2.05702L74.1301 0.0235398C71.0092 0.0777863 67.569 -0.133116 65.4035 0.158395C60.7654 0.780962 57.1619 6.28926 57.1665 11.0062C57.1717 17.1102 62.0289 21.9802 67.9042 21.9802C69.9203 21.9847 72.0935 21.9639 74.1276 21.9766C74.1235 18.224 74.1204 19.5188 74.1245 18.2843Z" fill="black"/>
<path fill-rule="evenodd" clip-rule="evenodd" d="M97.678 20.0709L97.7047 28.6043H94.4164L94.3969 13.3215C94.3949 8.54227 98.3367 4.64819 103.177 4.64819C108.015 4.64819 111.967 8.54227 111.972 13.3215C111.976 18.1013 108.034 21.9974 103.193 21.9974C101.107 21.9979 99.1884 21.274 97.678 20.0709ZM103.016 8.09664C106.017 8.09664 108.546 10.5119 108.469 13.318C108.391 16.1226 106.026 18.6179 103.027 18.6179C100.028 18.6179 97.927 16.5155 97.9245 13.5532C97.9224 10.594 100.017 8.09664 103.016 8.09664Z" fill="black"/>
<path fill-rule="evenodd" clip-rule="evenodd" d="M116.655 20.0709L116.684 28.6043H113.394L113.376 13.3215C113.371 8.54227 117.313 4.64819 122.153 4.64819C126.993 4.64819 130.945 8.54227 130.949 13.3215C130.955 18.1013 127.011 21.9974 122.171 21.9974C120.087 21.9979 118.167 21.274 116.655 20.0709ZM121.994 8.09664C124.993 8.09664 127.441 10.3557 127.445 13.318C127.449 16.2792 125.004 18.6179 122.005 18.6179C119.006 18.6179 116.904 16.5155 116.904 13.5532C116.9 10.594 118.995 8.09664 121.994 8.09664Z" fill="black"/>
<path fill-rule="evenodd" clip-rule="evenodd" d="M136.108 15.6911L143.091 8.65684C142.525 8.40436 142.246 8.16355 141.182 8.06875C138.096 8.06875 135.556 10.378 135.559 13.3504C135.559 14.2838 135.671 14.9241 136.108 15.6911ZM146.834 9.85127L138.762 18.0136C138.616 18.1018 139.521 18.7695 141.243 18.7122H147.451L147.455 22.0304H142.036C136.721 22.2615 132.207 18.4526 132.206 13.3545C132.088 8.55899 136.214 4.64868 141.239 4.64868C144.093 4.65629 146.49 6.61981 146.85 7.09332C147.575 7.70119 147.636 9.32148 146.834 9.85127Z" fill="black"/>
<path fill-rule="evenodd" clip-rule="evenodd" d="M148.92 0.157935H152.161V13.1898C152.339 15.3059 153.135 16.6184 154.093 17.4418C154.713 17.9716 155.704 18.2205 156.818 18.3264L161.589 18.3168V21.9782L157.513 22.0304C155.332 22.0623 153.02 21.6694 151.742 20.4324C149.947 18.6935 148.825 16.729 148.836 12.626L148.92 0.157935Z" fill="black"/>
</svg>

<?xml version="1.0" encoding="utf-8"?>
<!-- Generator: Adobe Illustrator 16.0.0, SVG Export Plug-In . SVG Version: 6.00 Build 0)  -->
<!DOCTYPE svg PUBLIC "-//W3C//DTD SVG 1.1//EN" "http://www.w3.org/Graphics/SVG/1.1/DTD/svg11.dtd">
<svg version="1.1" id="Layer_1" xmlns="http://www.w3.org/2000/svg" xmlns:xlink="http://www.w3.org/1999/xlink" x="0px" y="0px"
	 width="162px" height="29px" viewBox="0 0 162 29" enable-background="new 0 0 162 29" xml:space="preserve">
<path fill="#4D4D4D" d="M30.215,16.063h6.14v5.369h-2.069v-1.986h-2v1.988h-2.071V16.063z"/>
<path fill="#4D4D4D" d="M13.352,12.155c0.255-0.525,0.396-1.118,0.396-1.738c0-2.232-1.832-4.051-4.078-4.051
	c-2.174,0-3.959,1.699-4.076,3.826c-0.469-0.187-0.978-0.285-1.513-0.285C1.833,9.907,0,11.724,0,13.954
	c0,2.232,1.833,4.05,4.081,4.05c0.535,0,1.046-0.1,1.514-0.285c0.125,2.119,1.905,3.809,4.075,3.809c2.246,0,4.078-1.82,4.078-4.049
	c0-0.604-0.132-1.174-0.372-1.691h15.78v-0.011h9.1l0.001-3.622H13.352z M4.279,15.75c-1.006,0-1.824-0.813-1.824-1.808
	c0-0.999,0.818-1.812,1.824-1.812c1.003,0,1.823,0.813,1.823,1.812C6.103,14.938,5.283,15.75,4.279,15.75z M9.652,19.378
	c-1.005,0-1.825-0.813-1.825-1.812c0-0.995,0.82-1.813,1.825-1.813c1.004,0,1.822,0.817,1.822,1.813
	C11.474,18.565,10.656,19.378,9.652,19.378z M9.652,12.095c-1.005,0-1.825-0.811-1.825-1.811c0-0.996,0.82-1.811,1.825-1.811
	c1.004,0,1.822,0.815,1.822,1.811C11.474,11.284,10.656,12.095,9.652,12.095z"/>
<path fill="#4D4D4D" d="M84.269,4.691c-4.802,0-8.715,3.9-8.711,8.688c0.005,4.785,3.925,8.689,8.731,8.689
	c4.801,0,8.716-3.904,8.711-8.689C92.994,8.591,89.07,4.691,84.269,4.691z M84.281,18.565c-2.871,0-5.139-2.331-5.141-5.192
	c-0.006-2.862,2.258-5.194,5.131-5.194c2.869,0,5.215,2.333,5.218,5.194S87.152,18.565,84.281,18.565z"/>
<path fill="#4D4D4D" d="M74.125,18.284h-6.633c-3.943-0.236-6.679-3.715-6.454-7.674c0.334-4.057,3.04-6.682,7.205-6.887
	c2.059-0.022,3.745-0.073,5.888-0.073l0.003-1.593L74.13,0.023c-3.121,0.054-6.561-0.157-8.727,0.135
	c-4.638,0.623-8.241,6.131-8.237,10.848c0.005,6.104,4.862,10.974,10.738,10.974c2.016,0.004,4.189-0.017,6.223-0.004
	C74.124,18.225,74.121,19.519,74.125,18.284z"/>
<path fill="#4D4D4D" d="M103.177,4.648c-4.84,0-8.782,3.894-8.78,8.673l0.02,15.283h3.289l-0.027-8.534
	c1.511,1.203,3.43,1.928,5.516,1.928c4.841,0,8.783-3.896,8.779-8.677C111.967,8.542,108.016,4.648,103.177,4.648z M103.027,18.618
	c-3,0-5.101-2.103-5.104-5.065c-0.002-2.959,2.094-5.457,5.092-5.457c3.002,0,5.53,2.415,5.453,5.221
	C108.391,16.123,106.025,18.618,103.027,18.618z"/>
<path fill="#4D4D4D" d="M122.152,4.648c-4.84,0-8.781,3.894-8.776,8.673l0.019,15.283h3.289l-0.029-8.534
	c1.513,1.203,3.433,1.928,5.517,1.928c4.841,0,8.784-3.896,8.778-8.677C130.945,8.542,126.993,4.648,122.152,4.648z M122.005,18.618
	c-2.999,0-5.101-2.103-5.101-5.065c-0.004-2.959,2.091-5.457,5.09-5.457s5.447,2.259,5.451,5.221
	C127.449,16.279,125.004,18.618,122.005,18.618z"/>
<path fill="#4D4D4D" d="M136.107,15.691l6.983-7.035c-0.565-0.252-0.845-0.493-1.909-0.588c-3.086,0-5.625,2.309-5.623,5.282
	C135.559,14.284,135.671,14.924,136.107,15.691z M146.834,9.851l-8.072,8.163c-0.146,0.088,0.76,0.756,2.481,0.699h6.208
	l0.004,3.317h-5.419c-5.315,0.231-9.829-3.577-9.83-8.676c-0.118-4.795,4.008-8.706,9.032-8.706
	c2.854,0.008,5.252,1.971,5.611,2.445C147.575,7.701,147.637,9.321,146.834,9.851z"/>
<path fill="#4D4D4D" d="M148.92,0.158h3.241V13.19c0.178,2.116,0.974,3.428,1.932,4.251c0.62,0.53,1.611,0.779,2.726,0.885
	l4.771-0.01v3.662l-4.075,0.052c-2.182,0.032-4.494-0.36-5.771-1.598c-1.795-1.739-2.917-3.704-2.906-7.807L148.92,0.158z"/>
</svg>
